X: 417
%
T: Miss Nisbet of Dirleton
C:Nath. Gow
O:Scotland
B:Keith Norman MacDonald : "The Skye collection of the best reels & strathspeys extant" : 1887
Z:Ralph Palmer
R:Reel
M:C
L:1/8
K:A
e | A<ATe=c B=GGB | AAeA Tc>def | =gde=c B=GGB | A<ATe>B cAA :|
(g | a)ee=g B=GG(g | a)eef =g>ba>f | =g>de>=c B=GGB | A<ATe>B cAA(^g |
a)ee=g BGG(^g | a)eef =gbaf | =gde=c BdGB | Aaef cAA |]


